X:1
T:6 Lieder, Op.13
T:Liebeszauber
T:6 Lieder, Op.13
T:3. Liebeszauber
T:Clara Schumann
T:Emanuel Geibel 
T:OpenScore (CC0)
T:OpenScore (CC0)
T:OpenScore (CC0)
T:OpenScore (CC0)
C:Clara Schumann
Z:Emanuel Geibel
Z:OpenScore (CC0)
%%score 1 { ( 2 4 6 ) | ( 3 5 ) }
L:1/8
Q:1/4=90
M:4/4
K:Eb
V:1 treble nm="Voice"
V:2 treble nm="Piano"
V:4 treble 
V:6 treble 
V:3 bass 
V:5 bass 
V:1
"^Bewegt"!p! G | G3 A (B2 c) d | e2 c2 B3 B | e3 e d2 c2 | B6 B2 | F3 F G2 B2 | A2 =E2 F2 c2 | %7
w: Die|Lie- be sass * als|Nach- ti- gall im|Ro- sen- busch und|sang; es|flog der wun- der-|süs- se Schall den|
 B3 B c2 _e2 | d4 z4 | z G G A (B2 c) d | e2 c2 B3 B | e3 e d2 c2 |!>(! B4!>)!!<(! z2 c2!<)! | %13
w: grü- nen Wald ent-|lang.|Und wie er klang, * da|stieg im Kreis aus|tau- send Kel- chen|Duft, und|
 e3 c B B A A | G4 z2 G2 | G3 G G2 c2 | =B4 z4 | z8 | z4 z2 _A2 | G3 A (B2 c) d | e2 c2 B3 B | %21
w: al- le Wi- pfel rausch- ten|leis', und|lei- ser ging die|Luft;||die|Bä- che schwie- * gen,|die noch kaum ge-|
 e3 e d2 c2 | B4 z2 B2 | F3 F G2 B2 | A2 =E2 F2 c2 | B3 B c2 _e2 | d4 z2 A2 | G3 G A A =A A | %28
w: plät- schert  von den|Höh'n, die|Reh- lein stan- den|wie im Traum und|lausch- ten dem Ge-|tön. Und|hell und im- mer hel- ler|
 B6 =B2 | c3 c d2 d2 | g6 d2 | e3 e d2 c2 | B3 B A2 G2 | (B2 A) G F2 F2 | A6 A2 | A3 A B2 B2 | %36
w: floss der|Son- ne Glanz her-|ein, um|Blu- men, Wald und|Schlucht er- goss sich|gol- * dig ro- ther|Schein; um|Blu- men, Wald und|
 c2 d2 e2 f2 | B6 e2 | e4 d4 | e8[Q:1/4=85]"_langsamer" | z8 | z4 z2[Q:1/4=83]"^langsamer" E2 | %42
w: Schlucht er- goss sich|gol- dig|ro- ther|Schein.||Ich|
 E3 E E2 A2 | G3 E E2 E2 | E3 E E2 A2 | G6 G2 |[Q:1/4=81]"^ritardando" G3 G c[Q:1/4=79] c c c | %47
w: a- ber zog den|Weg ent- lang und|hör- te auch den|Schall. Ach!|was seit je- ner Stund' ich|
[Q:1/4=78] =B6 _B2[Q:1/4=77] |[Q:1/4=76] B3 A[Q:1/4=75] A2 G2 | F6 G2 | %50
w: sang, war|nur sein Wie- der-|hall, war|
[Q:1/4=73]"^ritard." (B2 A) G !fermata!G3 F | E4 z4 | z8 | z8 | !fermata!z8 |] %55
w: nur * sein Wie- der-|hall.||||
V:2
 z |!p! (3:2:2z G2 GA B2 cd | e2 c2 B3 B | e3 e d2 c2 | B6 B2 | %5
 (3z [B,F][B,F] (3[B,F][B,F][B,F] G2 B2 | (3:2:2z A2 =E2 F2 c2 | (3:2:2z (B2- BB c2 e2) | %8
 (3z [Fd][Fd]!>(! (3[Fd][DFc][DFc] (3[Dc][DB][DB] (3[DB][DA][DA]!>)! | %9
 (3z [B,EG][B,EG] (3[B,EG][B,EG][B,EA]!<(! (B2 c!<)!d) | e2 c2 B3 B | e3 e d2 c2 |!>(! B6!>)! c2 | %13
 e3 c x4 | (3[EG][EG][EG]"^dim." (3[EG][EG][EG] (3[EG][EG][EG]!pp! (3[FG][FG][FG] | x8 | =B6 G2 | %17
 G3 G G2 c2 | (=B2 _B2 =A2 B2) | (3:2:2z G2- GA B2!<(! cd!<)! | e2!>(! c2 B3!>)! B | e3 e d2 c2 | %22
 B6!p! B2 | x4 (G2 B2) | (A2 =E2"^cresc." F2 c2) | (3:2:2z B2- BB c2 e2 | %26
 (3z [Fd][Fd] (3[Fd][DFc][DFc]"_cresc." (3[DFc][DB][DB] (3[DB][DA][DA] | %27
 (3z [B,EG][B,EG] (3[B,EG][B,EG][B,^CG] (3[B,DA][B,DA][B,DA] (3[=CE=A][CEA][CEA] | %28
 (3z [_DEB][DEB] (3[DEB][DEB][DEB] (3[DEB][DEB][DEB] (3[DE=B][DEB][DEB] | %29
 (3z [Ec][Ec] (3[Ec][Ec][Ec] (3[Fc=d][Fcd][Fcd] (3[Fcd][Fcd][Fcd] | %30
!f! (3z [FGdg][FGdg] (3[FGdg][FGdg][FGdg] (3[FGc][FGc][FGc] (3[FGd][FGd][FGd] | %31
!f! (3:2:2z e2- ee d2 c2 | B3 B A2 G2 | %33
 (3[DEB][DEB][DEB] (3[CEA][CEA][B,EG]!>(! (3[B,EF][B,EF][B,EF] (3[B,DF][B,DF]!>)![B,_DF] | %34
 (3[A,CA][CFA][CFA] (3[CFA][CFA][CFA] (3[CFA][CFA][CFA] (3[CFA][CFA][CFA] | %35
!p! (3[_DA][DA][DA] (3[DA][DA][DA] (3[FB][FB][FB] (3[FB][FB][FB] | %36
 (3[Ec][Ec][Ec] (3z [FB=d]"_cresc."[FBd] (3z [EBe][EBe] (3z [Fcf][Fcf] | %37
 (3z [EB][EB] (3[EB][EB][EB] (3[Ec][Ec][Ec] (3[EBe][EBe][EBe] | %38
 (3z [EABe][EABe] (3[EABe][EABe][EABe] (3[DABd][DABd][DABd] (3[DABd][DABd][DABd] | %39
 (3[EGBe]!p! [B,E][B,E] (3[B,E][A,E][A,E] (3[A,E][G,E][G,E] (3[G,E][F,E][F,E] | %40
 (3z [F,_CE][F,CE] (3[F,CE][F,CE][F,CE] (3[F,B,E][F,B,E][F,B,E] (3[F,A,E][F,A,E][F,A,E] | x8 | %42
!p! x8 | x8 | x8 | x8 | x8 |!>(! (3z [DG=B][DGB]!>)! (3[DGB][DGB][DGB] (3[DGB][DGB][DGB] _B2 | %48
 B2- (3:2:2B2 A A2 G2 | F6 G2 | x2 (3:2:2A2 G !fermata![=A,G]2 [_A,=DFB]2 |!p! [G,E]4 [_CDA]4 | %52
 [B,EG]4 [A,DB]4 | [G,E]4!p! [G,E]4 |!pp! !fermata![G,E]8 |] %55
V:3
 z | x4 G,2 A,B, | C2 D2 E2 x2 | x8 | x8 | x8 | B,,8 | B,,8 | x8 | x4 G,2 A,B, | C2 D2 E2 x2 | x8 | %12
 x8 | x8 | %14
 (3[E,B,][E,B,][E,B,] (3[E,B,][E,B,][E,B,] (3[E,B,][E,B,][E,B,] (3[D,G,=B,][D,G,B,][D,G,B,] | %15
 (3[C,G,C][C,G,][C,G,] (3[C,G,][C,G,][C,G,] (3[=B,,G,][B,,G,][B,,G,] (3[=A,,D,][A,,D,][A,,D,] | %16
 (3[G,,D,][G,,D,][G,,D,] (3[G,,D,][G,,D,][G,,D,] (3[G,,D,][G,,D,][G,,D,] (3=B,B,B, | %17
 (3CCC (3CCC (3=B,B,B, (3=A,A,A, | (3G,G,G, (3G,G,G, (3^F,F,F, (3[B,,=F,][B,,F,][B,,F,] | %19
 x4 G,2 A,B, | C2 D2 E2 x2 | x8 | %22
 (3[G,B,][G,B,][G,B,] (3[G,B,][G,B,][G,B,] (3[F,A,][F,A,][F,A,] (3[E,G,][E,G,][E,G,] | %23
 (3B,,,D,D, (3D,D,D, (3E,E,E, (3=E,E,E, | B,,8 | B,,8 | %26
 (3B,,[B,D][B,D] (3[B,D][_A,B,][A,B,] (3[A,B,][G,B,][G,B,] (3[G,B,][F,B,][F,B,] | x3 =E, x4 | %28
 (3E,,[E,G,][E,G,] (3[E,G,][E,G,][E,G,] (3[E,G,][E,G,][E,G,] (3[E,G,][E,G,][E,G,] | x8 | x8 | %31
 x4 A,,4 | G,,4 F,,2 E,,2 | [A,,,A,,]4 [B,,,B,,]4 | %34
 (3[F,,,F,,][F,A,][F,A,] (3[F,A,][F,A,][F,A,] (3[F,A,][F,A,][F,A,] (3[F,A,][F,A,][F,A,] | %35
 (3[_D,F,][D,F,][D,F,] (3[D,F,][D,F,][D,F,] (3[D,G,][D,G,][D,G,] (3[D,G,][D,G,][D,G,] | %36
 (3[A,,A,][A,,A,][A,,A,] (3z [A,B,][A,B,] (3z [G,B,][G,B,] (3z [=A,CE][A,CE] | %37
 (3[B,,,B,,][G,B,][G,B,] (3[G,B,][G,B,][G,B,] (3[_A,C][A,C][A,C] (3[G,B,][G,B,][G,B,] | x8 | E,,8 | %40
 E,,8 | (3E,,B,,B,, (3B,,_D,D, (3D,_C,C, (3C,B,,B,, | %42
 (3E,,A,,A,, (3A,,A,,A,, (3B,,B,,B,, (3_C,C,C, | (3E,,B,,B,, (3B,,B,,B,, (3B,,B,,B,, (3B,,B,,B,, | %44
 E,,8 | E,,8 |"^ritardando      -      -      -      -      -      -      -" x8 | %47
 (3G,,[G,=B,][G,B,] (3[G,B,][G,B,]"^poco             -       -       -       a     -           -         poco"[G,B,] (3[G,B,][G,B,][G,B,] (3E,E,E, | %48
 G,,2- (3:2:2(G,,2 (A,,) A,,2) B,,2 | C,6 B,,2 | (3E,E,E, (3z E,E, E,2 (3z B,,B,, | %51
 (3E,,B,,B,, (3B,,B,,B,, (3z B,,B,, (3B,,B,,B,, | (3E,,B,,B,, (3B,,B,,B,, (3z B,,B,, (3B,,B,,B,, | %53
 [E,,B,,]4 [E,,B,,]4 | !fermata![E,,B,,]8 |] %55
V:4
 x | (3x [B,E][B,E] (3[B,E][B,E][B,E] (3[B,E][B,E][B,E] (3EEE | (3EEE (3AAA (3GGG (3GGG | %3
 (3GGG (3GGG (3GGG (3EEE | (3EEE (3EEE (3DDD (3CCC | x4 (3B,B,B, (3[_DG][DG][DG] | %6
 (3x CC (3CCC (3CCC (3_EEE | (3x EE (3EEE (3EEE (3_GGG | x8 | x4 (3[B,E][B,E][B,E] (3EEE | %10
 (3EEE (3AAA (3GGG (3GGG | (3GGG (3GGG (3GGG (3EEE | (3EEE (3EEE (3EEE (3EEE | %13
 (3EEE (3EEE (3[EB][EB][EB]!>(! (3[DA][DA][DA]!>)! | x8 | %15
 (3[EG][EG][EG] (3[EG][EG][EG] (3[DG][DG][DG] (3[C^Fc][CFc][CFc] | %16
 (3[=B,G][B,G][B,G] (3[B,G][B,G][B,G] (3[B,G][B,G][B,G] (3DDD | (3EEE (3EEE (3DDD (3[D^F][DF][DF] | %18
 (3[DG][DG][DG] (3DDD (3DDD (3[D_A]DD | (3z [B,E][B,E] (3[B,E][B,E][B,E] (3[B,E][B,E][B,E] (3EEE | %20
 (3EEE (3AAA (3GGG (3GGG | (3GGG (3GGG (3GGG (3EEE | (3EEE (3EEE (3DDD (3CCC | %23
 (3z [B,F][B,F] (3[B,F][B,F][B,F] (3B,B,B, (3_DDD | (3CCC (3CCC (3CCC (3_EEE | %25
 (3z EE (3EEE (3EEE (3_GGG | x8 | x8 | x8 | x8 | x8 | (3z GG (3GGG (3EEE (3EEE | %32
 (3[B,E][B,E][B,E] (3[B,E][B,E][B,E] (3B,B,B, (3B,B,B, | x8 | x8 | x8 | x8 | x8 | x8 | x8 | x8 | %41
 (3z [G,E][G,E]!<(! (3[G,E][B,E][B,E]!<)! (3[B,E]!>(![A,E][A,E] (3[A,E][G,E][G,E]!>)! | %42
 (3z [F,_CE][F,CE] (3[F,CE][F,CE][F,CE] (3[F,B,E][F,B,E][F,B,E] (3[F,A,E][F,A,E][F,A,E] | %43
 (3z [G,B,E][G,B,E] (3[G,B,E][G,B,E][G,B,E] (3[G,B,E][G,B,E][G,B,E] (3[G,B,E][G,B,E][G,B,E] | %44
 (3z [F,_CE][F,CE] (3[F,CE][F,CE][F,CE] (3[F,B,E][F,B,E][F,B,E] (3[F,A,E][F,A,E][F,A,E] | %45
 (3z [G,B,E][G,B,E] (3[G,B,E][G,B,E][G,B,E] (3[G,B,E][G,B,E][G,B,E] (3[G,B,E][G,B,E][G,B,E] | %46
 (3z [CEG][CEG] (3[CEG][CEG][CEG]!<(! (3[EGc][EGc][EGc] (3[E^Fc][EFc][EFc]!<)! | x6 (3_DDD | %48
 (3_DDD (3DDC (3CCC (3B,B,B, | (3=A,A,A, (3A,A,A, (3A,A,A, (3B,B,B, | (3[_DB][DB][DB] (3CCB, x4 | %51
 x8 | x8 | x8 | x8 |] %55
V:5
 x | (3E,,E,E, (3E,E,[E,F,] (3E,E,E, (3E,E,E, | (3E,E,E, (3E,E,E, (3E,E,E, (3[DE][DE][DE] | %3
 (3[CE][CE][CE] (3[CE][CE][CE] (3[B,E][B,E][B,E] (3[A,C][A,C][A,C] | %4
 (3[G,B,][G,B,][G,B,] (3[G,B,][G,B,][G,B,] (3[F,A,][F,A,][F,A,] (3[E,G,][E,G,][E,G,] | %5
 (3B,,,D,D, (3D,D,D, (3E,E,E, (3=E,E,E, | (3B,,F,F, (3G,G,G, (3A,A,A, (3[^F,=A,][F,A,][F,A,] | %7
 (3B,,[G,B,][G,B,] (3[G,B,][G,B,][G,B,] (3[_A,C][A,C][A,C] (3[=A,C][A,C][A,C] | %8
 (3B,,B,B, (3B,[_A,B,][A,B,] (3[A,B,][G,B,][G,B,] (3[G,B,][F,B,][F,B,] | %9
 (3E,,E,E, (3E,E,[E,F,] (3E,E,E, (3E,E,E, | (3E,E,E, (3E,E,E, (3E,E,E, (3[DE][DE][DE] | %11
 (3[CE][CE][CE] (3[CE][CE][CE] (3[B,D][B,D][B,D] (3[A,C][A,C][A,C] | %12
 (3[G,B,][G,B,][G,B,] (3[G,B,][G,B,][G,B,] (3[G,B,][G,B,][G,B,] (3[A,C][A,C][A,C] | %13
 (3CCC (3CC[A,C] (3[G,B,][G,B,][G,B,] (3[F,B,][F,B,][F,B,] | x8 | x8 | x8 | x8 | x8 | %19
 (3E,,E,E, (3E,E,[E,F,] (3E,E,E, (3E,E,E, | (3E,E,E, (3E,E,E, (3E,E,E, (3[DE][DE][DE] | %21
 (3[CE][CE][CE] (3[CE][CE][CE] (3[B,E][B,E][B,E] (3[A,C][A,C][A,C] | x8 | x8 | %24
 (3B,,F,F, (3G,G,G, (3A,A,A, (3[^F,=A,][F,A,][F,A,] | %25
 (3B,,[G,B,][G,B,] (3[G,B,][G,B,][G,B,] (3[_A,C][A,C][A,C] (3[=A,C][A,C][A,C] | x8 | %27
 (3E,,E,E, (3E,E,_E, (3[E,F,][E,F,][E,F,] (3[E,^F,][E,F,][E,F,] | x8 | %29
 (3A,,[A,C][A,C] (3[A,C][A,C][A,C] (3[A,CD][A,CD][A,CD] (3[A,CD][A,CD][A,CD] | %30
 (3G,,[G,=B,][G,B,] (3[G,B,][G,B,][G,B,] (3[G,=A,][G,A,][G,A,] (3[G,B,][G,B,][G,B,] | %31
 (3C,[CE][CE] (3[CE][CE][CE] (3_A,,[_B,D][B,D] (3[A,C][A,C][A,C] | %32
 (3E,E,E, (3E,E,E, (3D,D,D, (3E,E,E, | x8 | x8 | x8 | x8 | x8 | %38
 (3[B,,,B,,] [F,A,B,][F,A,B,] (3[F,A,B,][F,A,B,][F,A,B,] (3[F,A,B,][F,A,B,][F,A,B,] (3[F,A,B,][F,A,B,][F,A,B,] | %39
 (3E,,_D,D, (3D,_C,C, (3C,B,,B,, (3B,,A,,A,, | (3E,,A,,A,, (3A,,A,,A,, (3B,,B,,B,, (3_C,C,C, | %41
 E,,8 | E,,8 | E,,8 | (3E,,A,,A,, (3A,,A,,A,, (3B,,B,,B,, (3_C,C,C, | %45
 (3E,,B,,B,, (3B,,B,,B,, (3B,,B,,B,, (3B,,B,,B,, | %46
 (3=C,,[C,G,][C,G,] (3[C,G,][C,G,][C,G,] (3[C,G,][C,G,][C,G,] (3[C,=A,][C,A,][C,A,] | x6 G,,2 | %48
 (3E,E,E, (3E,E,E, (3E,E,E, (3E,E,E, | (3E,E,E, (3E,E,E, (3E,E,E, (3E,E,E, | %50
 A,,2 (3:2:2A,,2 B,, !fermata!C,2 x2 | E,,8 | E,,8 | x8 | x8 |] %55
V:6
 x | x8 | x8 | x8 | x8 | x8 | x8 | x8 | x8 | x8 | x8 | x8 | x8 | x8 | x8 | x8 | x8 | x8 | %18
 x2 B4 x2 | x8 | x8 | x8 | x8 | x8 | x8 | x8 | x8 | x8 | x8 | x8 | x8 | x8 | x8 | x8 | x8 | x8 | %36
 x8 | x8 | x8 | x8 | x8 | x8 | x8 | x8 | x8 | x8 | x8 | x8 | e4 x4 | x8 | e4 x4 | x8 | x8 | x8 | %54
 x8 |] %55

